_site/img/icons/enneagram.svg

<svg fill="none" height="128" viewBox="0 0 128 128" width="128" xmlns="http://www.w3.org/2000/svg"><g fill="#000"><path d="m105.298 57.9809c-.116-.3128-.361-.5588-.675-.6744l-15.8483-5.8264 2.9183-17.2811c.0669-.3989-.0827-.8024-.3944-1.0608-.3117-.2573-.7344-.3298-1.1141-.1915l-16.6532 6.1177-8.4059-14.4829c-.2029-.3502-.5757-.5644-.9803-.5644h-.0012c-.4046 0-.7786.2165-.9803.5678l-8.3085 14.4228-16.4866-6.061c-.3785-.1406-.8024-.0669-1.114.1904-.3106.2572-.4613.6607-.3956 1.0585l2.873 17.2867-16.3562 6.0101c-.314.1156-.561.3638-.6755.6789-.1145.315-.0827.663.085.9531l10.2691 17.7299-4.5492 7.897c-.2017.3514-.2017.782.0012 1.1322.2028.3514.5768.5667.9814.5667h9.1245l9.8271 16.9668c.2754.475.85.685 1.3634.499.5157-.186.8251-.713.7344-1.252l-2.695-16.2138h32.7272l-2.7381 16.2098c-.0907.543.2187 1.072.7367 1.257.1246.044.2538.066.3808.066.3989 0 .7797-.211.9848-.574l9.6402-16.9588h9.4905c.4046 0 .7797-.2165.9818-.5678.203-.3513.201-.7831-.001-1.1345l-4.8013-8.2722 9.9733-17.544c.167-.2901.195-.638.081-.9508zm-16.1652-22.2338-2.5228 14.9362-8.0535-2.9614-3.8703-6.6685zm-3.9508 23.3909-4.8427-8.3447 5.8865 2.1646zm-9.9563-12.6401-7.6738-2.822 4.9753-1.828zm-11.0761-19.083 7.2216 12.4428-7.1049 2.6101-7.2522-2.6667zm-3.1688 16.2599-7.8619 2.8889 2.7472-4.7691zm-21.5651-7.9288 14.2925 5.2553-3.9066 6.7818-7.9027 2.9036zm2.8617 17.2165 5.7596-2.116-4.743 8.2326zm-16.8549 6.1925 14.688-5.3969 1.3985 8.4172-7.1491 12.4112zm16.6736 6.5439 3.0724 18.4835h-5.2496l-4.2466-7.3315zm-10.6477 18.4846 2.9172-5.0648 2.9331 5.0648zm15.8338 12.7115-6.0497-10.4459h4.3134zm.1836-12.7115-3.587-21.5786 7.4755-12.9767 12.912-4.7441 12.741 4.6852 7.5842 13.0673-3.6391 21.5481h-33.4866zm38.9062-18.4801 6.2583 10.7837-4.3747 7.6964h-5.0048zm-5.2371 31.0057 1.7328-10.26h4.0993zm15.963-12.5256h-6.2345l3.0849-5.4264zm-3.17-9.9778-6.9643-11.9998 1.428-8.4524 14.1964 5.219z"/><path d="m64 115c-28.1214 0-51-22.8786-51-51s22.8786-51 51-51 51 22.8786 51 51-22.8786 51-51 51zm0-99.7333c-26.8713 0-48.7333 21.862-48.7333 48.7333s21.862 48.733 48.7333 48.733 48.733-21.8617 48.733-48.733-21.8617-48.7333-48.733-48.7333z"/></g></svg>

<svg width="128" height="128" viewBox="0 0 128 128" fill="none" xmlns="http://www.w3.org/2000/svg">
<path d="M105.298 57.9809C105.182 57.6681 104.937 57.4221 104.623 57.3065L88.7747 51.4801L91.693 34.199C91.7599 33.8001 91.6103 33.3966 91.2986 33.1382C90.9869 32.8809 90.5642 32.8084 90.1845 32.9467L73.5313 39.0644L65.1254 24.5815C64.9225 24.2313 64.5497 24.0171 64.1451 24.0171H64.1439C63.7393 24.0171 63.3653 24.2336 63.1636 24.5849L54.8551 39.0077L38.3685 32.9467C37.99 32.8061 37.5661 32.8798 37.2545 33.1371C36.9439 33.3943 36.7932 33.7978 36.8589 34.1956L39.7319 51.4823L23.3757 57.4924C23.0617 57.608 22.8147 57.8562 22.7002 58.1713C22.5857 58.4863 22.6175 58.8343 22.7852 59.1244L33.0543 76.8543L28.5051 84.7513C28.3034 85.1027 28.3034 85.5333 28.5063 85.8835C28.7091 86.2349 29.0831 86.4502 29.4877 86.4502H38.6122L48.4393 103.417C48.7147 103.892 49.2893 104.102 49.8027 103.916C50.3184 103.73 50.6278 103.203 50.5371 102.664L47.8421 86.4502H80.5693L77.8312 102.66C77.7405 103.203 78.0499 103.732 78.5679 103.917C78.6925 103.961 78.8217 103.983 78.9487 103.983C79.3476 103.983 79.7284 103.772 79.9335 103.409L89.5737 86.4502H99.0642C99.4688 86.4502 99.8439 86.2337 100.046 85.8824C100.249 85.5311 100.247 85.0993 100.045 84.7479L95.2437 76.4757L105.217 58.9317C105.384 58.6416 105.412 58.2937 105.298 57.9809ZM89.1328 35.7471L86.61 50.6833L78.5565 47.7219L74.6862 41.0534L89.1328 35.7471ZM85.182 59.138L80.3393 50.7933L86.2258 52.9579L85.182 59.138ZM75.2257 46.4979L67.5519 43.6759L72.5272 41.8479L75.2257 46.4979ZM64.1496 27.4149L71.3712 39.8577L64.2663 42.4678L57.0141 39.8011L64.1496 27.4149ZM60.9808 43.6748L53.1189 46.5637L55.8661 41.7946L60.9808 43.6748ZM39.4157 35.746L53.7082 41.0013L49.8016 47.7831L41.8989 50.6867L39.4157 35.746ZM42.2774 52.9625L48.037 50.8465L43.294 59.0791L42.2774 52.9625ZM25.4225 59.155L40.1105 53.7581L41.509 62.1753L34.3599 74.5865L25.4225 59.155ZM42.0961 65.6989L45.1685 84.1824H39.9189L35.6723 76.8509L42.0961 65.6989ZM31.4484 84.1835L34.3656 79.1187L37.2987 84.1835H31.4484ZM47.2822 96.895L41.2325 86.4491H45.5459L47.2822 96.895ZM47.4658 84.1835L43.8788 62.6049L51.3543 49.6282L64.2663 44.8841L77.0073 49.5693L84.5915 62.6366L80.9524 84.1847H47.4658V84.1835ZM86.372 65.7034L92.6303 76.4871L88.2556 84.1835H83.2508L86.372 65.7034ZM81.1349 96.7091L82.8677 86.4491H86.967L81.1349 96.7091ZM97.0979 84.1835H90.8634L93.9483 78.7571L97.0979 84.1835ZM93.9279 74.2057L86.9636 62.2059L88.3916 53.7535L102.588 58.9725L93.9279 74.2057Z" fill="black"/>
<path d="M64 115C35.8786 115 13 92.1214 13 64C13 35.8786 35.8786 13 64 13C92.1214 13 115 35.8786 115 64C115 92.1214 92.1214 115 64 115ZM64 15.2667C37.1287 15.2667 15.2667 37.1287 15.2667 64C15.2667 90.8713 37.1287 112.733 64 112.733C90.8713 112.733 112.733 90.8713 112.733 64C112.733 37.1287 90.8713 15.2667 64 15.2667Z" fill="black"/>
</svg>
